assets/img/icons/mail_open.svg

<svg fill="none" height="64" viewBox="0 0 64 64" width="64" xmlns="http://www.w3.org/2000/svg"><g stroke="#000" stroke-width="2"><rect fill="#fff" height="34" rx="1" width="54" x="5" y="21"/><path d="m6.85038 21h50.29922c.9533 0 1.366 1.2072.6122 1.7907l-25.1496 19.4707c-.3605.279-.864.279-1.2244 0l-25.14959-19.4707c-.75378-.5835-.34111-1.7907.61217-1.7907z" fill="#c4f0f5"/><path d="m12 7h40c.5523 0 1 .44772 1 1v18.0179c0 .3097-.1435.6019-.3885.7913l-20 15.4546c-.3602.2782-.8628.2782-1.2229 0l-20-15.4546c-.2451-.1894-.3886-.4816-.3886-.7913v-18.0179c0-.55228.4477-1 1-1z" fill="#fff"/><path d="m7.78917 55h48.42163c.9972 0 1.3801-1.2997.5422-1.8403l-24.2109-15.6199c-.33-.2129-.7542-.2129-1.0842 0l-24.21085 15.6199c-.83795.5406-.45508 1.8403.54212 1.8403z" fill="#fff"/><path d="m20 29h24"/><path d="m24 33h16"/></g><circle cx="32" cy="19" fill="#c4f0f5" r="5"/></svg>

<svg width="64" height="64" viewBox="0 0 64 64" fill="none" xmlns="http://www.w3.org/2000/svg">
<rect x="5" y="21" width="54" height="34" rx="1" fill="white" stroke="black" stroke-width="2"/>
<path d="M6.85038 21H57.1496C58.1029 21 58.5156 22.2072 57.7618 22.7907L32.6122 42.2614C32.2517 42.5404 31.7482 42.5404 31.3878 42.2614L6.23821 22.7907C5.48443 22.2072 5.8971 21 6.85038 21Z" fill="#C4F0F5" stroke="black" stroke-width="2"/>
<path d="M12 7H52C52.5523 7 53 7.44772 53 8V26.0179C53 26.3276 52.8565 26.6198 52.6115 26.8092L32.6115 42.2638C32.2513 42.542 31.7487 42.542 31.3886 42.2638L11.3886 26.8092C11.1435 26.6198 11 26.3276 11 26.0179V8C11 7.44772 11.4477 7 12 7Z" fill="white" stroke="black" stroke-width="2"/>
<path d="M7.78917 55H56.2108C57.208 55 57.5909 53.7003 56.753 53.1597L32.5421 37.5398C32.2121 37.3269 31.7879 37.3269 31.4579 37.5398L7.24705 53.1597C6.4091 53.7003 6.79197 55 7.78917 55Z" fill="white" stroke="black" stroke-width="2"/>
<line x1="20" y1="29" x2="44" y2="29" stroke="black" stroke-width="2"/>
<line x1="24" y1="33" x2="40" y2="33" stroke="black" stroke-width="2"/>
<circle cx="32" cy="19" r="5" fill="#C4F0F5"/>
</svg>
